hornpipes/bobbycaseys.htmlhornpipes/bobbycaseys.htmlhornpipes/bobbycaseys.htmlhornpipes/bobbycaseys.htmlhornpipes/bobbycaseys.htmlhornpipes/bobbycaseys.htmlhornpipes/bobbycaseys.htmlhornpipes/bobbycaseys.htmlhornpipes/bobbycaseys.htmlJames Kelly
hornpipes/bobbycaseys.htmlFrom <I>James Kelly &amp; Zan McLeod: The Ring Sessions</I>
hornpipes/bobbycaseys.htmlhornpipes/bobbycaseys.html<PRE>T:Eve's Jig
T:Eve's Jig
M:9/8
L:1/8
C:James Kelly
R:slip jig
D:James Kelly and Zan McLeod: The Ring Sessions
Z:Devin McCabe
K:D
BcB BAF d2A | BcB BAF AFA | BcB BAF d2e |1 fed edB AFA :|2 fed edB AFD|
!:EeE dBc cdD | EeE dBc BAF | EeE dBc cde |1 fed edB AFD :|2 fed edB AFE
|
!:Ddd dcd Bcd | D2d dcd edB | Add dcd Bcd | efe e2f gfe :|
!:AfA gef g2a | AfA gef edB | AfA gef g2e |1 fed edB dBG :|2 fed edB AFA
||

%  ABC2Win Version 2.1 1/20/2001
hornpipes/bobbycaseys.htmlhornpipes/bobbycaseys.htmlhornpipes/bobbycaseys.htmlhornpipes/bobbycaseys.htmlhornpipes/bobbycaseys.htmlhornpipes/bobbycaseys.htmlhornpipes/bobbycaseys.html